X:64
T:Dear Tobacco
R:hp 32 reel
M: 4/4
L:1/8
Q:1/4=140
B:Charlton Memorial Tunebook (northumbrian Pipers' Society)
K:Edor
BE EF G/F/E/D/ F2 | BE Ec d>cBA | BE EF G/F/E/D/ F2 | D>E Dc dc BA :|
|:Be ef g/f/e e2 Be eg | af ge Bd de | d/c/B/A/ d2 FA AF dc BA :|

